assets/logos/icons/fullscreen.svg

<svg height="24" viewBox="0 0 24 24" width="24" xmlns="http://www.w3.org/2000/svg"><path d="m2 5h6v2h-4v4h-2zm2 12h4v2h-6v-6h2zm18 2h-6v-2h4v-4h2zm-6-14h6v6h-2v-4h-4z" fill="#492f5c" fill-rule="evenodd"/></svg>

<svg xmlns="http://www.w3.org/2000/svg" width="24" height="24" viewBox="0 0 24 24">
  <path fill="#492F5C" fill-rule="evenodd" d="M2,5 L8,5 L8,7 L4,7 L4,11 L2,11 L2,5 Z M4,17 L8,17 L8,19 L2,19 L2,13 L4,13 L4,17 Z M22,19 L16,19 L16,17 L20,17 L20,13 L22,13 L22,19 Z M16,5 L22,5 L22,11 L20,11 L20,7 L16,7 L16,5 Z"/>
</svg>
